X: 1169
T: İstanbul`da Yaşanan...
C: Ünal Narçın
O: Turkey
F: http://compmusic.upf.edu/node/140
N: nihavent--sarki--nimsofyan--istanbulda_yasanan--baki_callioglu
N: makam= nihavent
N: form= sarki
N: usul= nimsofyan = 2/4
M: 2/4
L: 1/16
K: C _B _e  
Q: 1/4=84
%%MIDI tuningsystem comma53
d2ec d2ec  | d2ec d4  | c2dB c2dB  | c2dB c4  | \
w:  ARANAĞME  |   |   |   | 
d2ec d2ec  | 
w:  ARANAĞME  | 
d2ec d4  | c2dB c2dB  | c2dB c4  | f2e2 d2c2  | \
w:   |   |   |   | 
B2A2 G4  | 
w:   | 
B2A2 GAG^F  | GABc d4  | f2e2 d2c2  | B2A2 G4  | \
w:   |   |   |   | 
B2A2 GAG^F  | 
w:   | 
GBdB G4  | d2e2 d2e2  | d2e2 d4  | c2d2 c2d2  | \
w:   |  İs tan bul da   |  ya şa nan   |  bir  aş kın  hi  | 
c2d2 c4  | B2c2 B2c2  | 
w:  kâ ye si    |  De niz  bi lir   | 
B2cB B4  | feed dccB  | B2c2 d4  | d2ed d2ed  | 
w:  uf kun *  da   |  su *  la *  rın *  da   |  ay  bi lir    |  Ba ha *  rın da   | 
d2e2 d4  | c2d2 c2d2  | c2dc c4  | B2c2 B2c2  | \
w:  çi çek ler   |  de niz  bi lir   |  dağ  bi *  lir    |  Ley lâ  Mec nun   | 
B2cB B4  | feed dccB  | 
w:  mi sâ *  li   |  bir  *  sev *  dâ  *  ef  | 
B2c2 d4  | A2B2 A2G2  | ^F2G2 A4  | B2A2 GAG^F  | G8  | \
w:  sâ ne si    |  Bir  sev dâ  ef  |  sâ ne si   |  ye  le  lel   |  li    | 
G2G2 d4  | d8  | 
w:  Ye  le  lel   |  li   | 
c2d2 e2f2  | d8  | e2d2 c2B2  | A8  | B2A2 GAG^F  | G8  | \
w:  ye  le  lel   |  li   |  ye  le  lel   |  li   |  ye  le  lel   |  li    | 
G2G2 d4  | d8  | 
w:  Ye  le  lel   |  li   | 
c2d2 e2f2  | d8  | e2d2 c2B2  | A8  | B2A2 GAG^F  | G8  | \
w:  ye  le  lel   |  li   |  ye  le  lel   |  li   |  ye  le  lel   |  li    | 
d2ec d2ec  | 
w:  ARANAĞME  | 
d2ec d4  | c2dB c2dB  | c2dB c4  | d2ec d2ec  | \
w:   |   |   |  ARANAĞME  | 
d2ec d4  | 
w:   | 
c2dB c2dB  | c2dB c4  | f2e2 d2c2  | B2A2 G4  | \
w:   |   |   |   | 
B2A2 GAG^F  | 
w:   | 
GABc d4  | f2e2 d2c2  | B2A2 G4  | B2A2 GAG^F  | \
w:   |   |   |   | 
GBdB G4  | 
w:   | 
d2e2 d2e2  | d2e2 d4  | c2d2 c2d2  | c2d2 c4  | \
w:  İs tan bul da   |  ya şa nan   |  bir  aş kın  hi  |  kâ ye si    | 
B2c2 B2c2  | B2cB B4  | 
w:  De niz  bi lir   |  uf kun *  da   | 
feed dccB  | B2c2 d4  | d2ed d2ed  | d2e2 d4  | \
w:  su *  la *  rın *  da   |  ay  bi lir    |  Ba ha *  rın da   |  çi çek ler   | 
c2d2 c2d2  | 
w:  de niz  bi lir   | 
c2dc c4  | B2c2 B2c2  | B2cB B4  | feed dccB  | \
w:  dağ  bi *  lir    |  Ley lâ  Mec nun   |  mi sâ *  li   |  bir  *  sev *  dâ  *  ef  | 
B2c2 d4  | 
w:  sâ ne si    | 
A2B2 A2G2  | ^F2G2 A4  | B2A2 GAG^F  | G8  | \
w:  Bir  sev dâ  ef  |  sâ ne si   |  ye  le  lel   |  li    | 
G2G2 d4  | d8  | c2d2 e2f2  | 
w:  Ye  le  lel   |  li   |  ye  le  lel   | 
d8  | e2d2 c2B2  | A8  | B2A2 GAG^F  | G8  | G2G2 d4  | d8  | \
w:  li   |  ye  le  lel   |  li   |  ye  le  lel   |  li    |  Ye  le  lel   |  li   | 
c2d2 e2f2  | 
w:  ye  le  lel   | 
d8  | e2d2 c2B2  | A8  | B2A2 GAG^F  | G8  | |


